!!!COM: Arthur Honneger
!!!OTL: [T606_Hon-w35p28m1-h1m1]
**kern	**dynam	**kern	**dynam	**kern	**dynam	**kern	**dynam	**kern	**dynam	**kern	**dynam
*grp:A	*	*grp:A	*grp:A	*grp:A	*grp:A	*grp:A	*grp:A	*grp:A	*grp:A	*grp:B	*grp:B
*part6	*	*part5	*part5	*part4	*part4	*part3	*part3	*part2	*part2	*part1	*part1
*staff6	*	*staff5	*	*staff4	*	*staff3	*	*staff2	*	*staff1	*
*I"Contrabass	*	*I"Violoncello	*	*I"Viola	*	*I"Violin II	*	*I"Violin II	*	*I"Violin I	*
*I'Cb.	*	*I'Vc.	*	*I'Vla.	*	*I'Vln. II	*	*I'Vln. II	*	*I'Vln. I	*
*clefF4	*	*clefF4	*	*clefC3	*	*clefG2	*	*clefG2	*	*clefG2	*
*ITrd7c12	*	*	*	*	*	*	*	*	*	*	*
*k[]	*	*k[]	*	*k[]	*	*k[]	*	*k[]	*	*k[f#c#g#d#a#e#]	*
*C:	*	*C:	*	*C:	*	*C:	*	*C:	*	*F#:	*
*M6/8	*	*M6/8	*	*M6/8	*	*M6/8	*	*M6/8	*	*M2/4	*
=1	=1	=1	=1	=1	=1	=1	=1	=1	=1	=1	=1
!	!	!	!	!	!	!	!	!	!	!LO:TX:t=Vivace, non troppo ([quarter-dot]=100)	!
4%3r	.	4%3r	.	4%3r	.	4%3r	.	8aan'L	p	4%3r	.
.	.	.	.	.	.	.	.	8aa'	.	.	.
.	.	.	.	.	.	.	.	8aa'J	.	.	.
.	.	.	.	.	.	.	.	8aa'L	.	.	.
.	.	.	.	.	.	.	.	8aa'	.	.	.
.	.	.	.	.	.	.	.	8aa'J	.	.	.
=2	=2	=2	=2	=2	=2	=2	=2	=2	=2	=2	=2
*	*	*	*	*	*	*	*	*	*	*Xtuplet	*
!	!	!	!	!	!	!	!	!	!	!LO:TX:a:t=pizz.	!
4%3r	.	4%3r	.	4%3r	.	4%3r	.	8aa'L	.	16%3cc#'L	p
.	.	.	.	.	.	.	.	8aa'	.	.	.
.	.	.	.	.	.	.	.	.	.	16%3ee#'J	.
.	.	.	.	.	.	.	.	8aa'J	.	.	.
.	.	.	.	.	.	.	.	8aa'L	.	16%3dd#'L	.
.	.	.	.	.	.	.	.	8aa'	.	.	.
.	.	.	.	.	.	.	.	.	.	16%3gg#'J	.
.	.	.	.	.	.	.	.	8aa'J	.	.	.
=3	=3	=3	=3	=3	=3	=3	=3	=3	=3	=3	=3
4%3r	.	4%3r	.	4%3r	.	4%3r	.	8dd'L 8aa	.	16%3aa#'L	.
!	!	!	!	!	!	!	!	!	!LO:HP:t=poco %s	!	!
.	.	.	.	.	.	.	.	8dd' 8aa	<	.	.
.	.	.	.	.	.	.	.	.	.	16%3gg#'J	.
.	.	.	.	.	.	.	.	8dd'J 8aa	.	.	.
.	.	.	.	.	.	.	.	8dd'L 8aa	.	16%3ee#'L	.
.	.	.	.	.	.	.	.	8dd' 8aa	.	.	.
.	.	.	.	.	.	.	.	.	.	16%3gg#'J	.
.	.	.	.	.	.	.	.	8dd'J 8aa	.	.	.
=4	=4	=4	=4	=4	=4	=4	=4	=4	=4	=4	=4
4%3r	.	4%3r	.	4%3r	.	4%3r	.	8dd'L 8aa	.	16%3ee#'L	.
.	.	.	.	.	.	.	.	8dd' 8aa	.	.	.
.	.	.	.	.	.	.	.	.	.	16%3dd#'J	.
.	.	.	.	.	.	.	.	8dd'J 8aa	.	.	.
.	.	.	.	.	.	.	.	8dd'L 8aa	.	16%3ee#'L	.
.	.	.	.	.	.	.	.	8dd' 8aa	.	.	.
.	.	.	.	.	.	.	.	.	.	16%3gg#'J	.
.	.	.	.	.	.	.	.	8dd'J 8aa	.	.	.
!!linebreak:original
=5	=5	=5	=5	=5	=5	=5	=5	=5	=5	=5	=5
4%3r	.	4%3r	.	4%3r	.	8ff#X'L	.	8dd'L 8aa	.	16%3cc#'L	.
.	.	.	.	.	.	8ff#'	.	8dd' 8aa	.	.	.
.	.	.	.	.	.	.	.	.	.	16%3ee#'J	.
.	.	.	.	.	.	8ff#'J	.	8dd'J 8aa	.	.	.
.	.	.	.	.	.	8ff#'L	.	8dd'L 8aa	.	16%3dd#'	.
.	.	.	.	.	.	8ff#'	.	8dd' 8aa	.	.	.
.	.	.	.	.	.	.	.	.	.	16%3r	.
.	.	.	.	.	.	8ff#'J	.	8dd'J 8aa	.	.	.
=6	=6	=6	=6	=6	=6	=6	=6	=6	=6	=6	=6
4%3r	.	4%3r	.	4%3r	.	8ff#X'L	.	8dd'L 8aa	.	16%3cc#'L	.
.	.	.	.	.	.	8ff#'	.	8dd' 8aa	.	.	.
.	.	.	.	.	.	.	.	.	.	16%3dd#'	.
.	.	.	.	.	.	8ff#'J	.	8dd'J 8aa	.	.	.
.	.	.	.	.	.	8ff#'L	.	8dd'L 8aa	.	16%3ee#'	.
.	.	.	.	.	.	8ff#'	.	8dd' 8aa	.	.	.
.	.	.	.	.	.	.	.	.	.	16%3gg#'J	.
.	.	.	.	.	.	8ff#'J	.	8dd'J 8aa	.	.	.
=7	=7	=7	=7	=7	=7	=7	=7	=7	=7	=7	=7
4%3r	.	[4.f#X^	f	[4.ff#X^	f	8ff#X'L	mf	8dd'L 8aa	mf	16%3aa#'L	.
.	.	.	.	.	.	8ff#'	.	8dd' 8aa	.	.	.
.	.	.	.	.	.	.	.	.	.	16%3gg#'	.
.	.	.	.	.	.	8ff#'J	.	8dd'J 8aa	.	.	.
.	.	8f#L]	.	8ff#L]	.	8ff#'L	.	8dd'L 8aa	.	16%3aa#'	.
.	.	16r	.	16r	.	8ff#'	.	8dd' 8aa	.	.	.
.	.	(16BL	.	(16bL	.	.	.	.	.	16%3gg#'J	.
.	.	16F#X	.	16f#X	.	8ff#'J	.	8dd'J 8aa	.	.	.
.	.	16C#XJJ	.	16c#XJJ	.	.	.	.	.	.	.
=8	=8	=8	=8	=8	=8	=8	=8	=8	=8	=8	=8
!LO:TX:b:t=pizz.	!	!	!	!	!	!	!	!	!	!	!
8GG#X	.	8GG#XL)	.	8G#XL)	.	8ff#X'L	.	8dd'L 8aa	.	16%3ee#'L	.
8r	.	8r	.	8r	.	8ff#'	.	8dd' 8aa	.	.	.
.	.	.	.	.	.	.	.	.	.	16%3dd#'J	.
8r'	.	8AA'J	.	8A'J	.	8ff#'J	.	8dd'J 8aa	.	.	.
8BB	.	8BB'	.	8B'	.	8ff#'L	.	8dd'L 8aa	.	16%3gg#'L	.
8r	.	8r	.	8r	.	8ff#'	.	8dd' 8aa	.	.	.
.	.	.	.	.	.	.	.	.	.	16%3ee#'J	.
8r	.	8r	.	8r	.	8ff#'J	.	8dd'J 8aa	.	.	.
=9	=9	=9	=9	=9	=9	=9	=9	=9	=9	=9	=9
8AA	.	8AA'	.	8A'	.	8ff#X'L	.	8dd'L 8aa	.	16%3cc#'L	.
8r	.	8r	.	8r	.	8ff#'	.	8dd' 8aa	.	.	.
.	.	.	.	.	.	.	.	.	.	16%3dd#'J	.
8r	.	8r	.	8r	.	8ff#'J	.	8dd'J 8aa	.	.	.
8C#X	.	8C#X'	.	8c#X'	.	8ff#'L	.	8dd'L 8aa	.	16%3cc#'	.
8r	.	8r	.	8r	.	8ff#'	.	8dd' 8aa	.	.	.
.	.	.	.	.	.	.	.	.	.	16%3r	.
8r	.	8r	.	8r	.	8ff#'J	.	8dd'J 8aa	.	.	.
!!pagebreak:original
=10	=10	=10	=10	=10	=10	=10	=10	=10	=10	=10	=10
4EE#X	.	2.EE#X~	.	2.E#X~	.	8ff#X'L	.	8dd'L 8aa	.	16%3cc#'L	.
.	.	.	.	.	.	8ff#'	.	8dd' 8aa	.	.	.
.	.	.	.	.	.	.	.	.	.	16%3ee#'J	.
8r	.	.	.	.	.	8ff#'J	.	8dd'J 8aa	.	.	.
4r	.	.	.	.	.	8ff#'L	.	8dd'L 8aa	.	16%3dd#'L	.
.	.	.	.	.	.	8ff#'	.	8dd' 8aa	.	.	.
.	.	.	.	.	.	.	.	.	.	16%3gg#'J	.
8r	.	.	.	.	.	8ff#'J	.	8dd'J 8aa	.	.	.
=11	=11	=11	=11	=11	=11	=11	=11	=11	=11	=11	=11
8CC#X	.	8CC#X'L	.	8C#X'L	.	8ff#X'L	.	8dd'L 8aa	.	16%3aa#'L	.
8r	.	8r	.	8r	.	8ff#'	.	8dd' 8aa	.	.	.
.	.	.	.	.	.	.	.	.	.	16%3gg#'J	.
8r'	.	8AA'J	.	8A'J	.	8ff#'J	.	8dd'J 8aa	.	.	.
8FF#X	.	8FF#X'L	.	8F#X'L	.	8ff#'L	.	8dd'L 8aa	.	16%3ee#'L	.
8r	.	8r	.	8r	.	8ff#'	.	8dd' 8aa	.	.	.
.	.	.	.	.	.	.	.	.	.	16%3gg#'J	.
8r'	.	8D'J	.	8d'J	.	8ff#'J	.	8dd'J 8aa	.	.	.
=12	=12	=12	=12	=12	=12	=12	=12	=12	=12	=12	=12
8GG#X	.	8GG#X'L	.	8G#X'L	.	8ff#X'L	.	8dd'L 8aa	.	16%3ee#'L	.
8r	.	8r	.	8r	.	8ff#'	.	8dd' 8aa	.	.	.
.	.	.	.	.	.	.	.	.	.	16%3dd#'J	.
8r'	.	8F#X'J	.	8f#X'J	.	8ff#'J	.	8dd'J 8aa	.	.	.
8C#X	.	8C#X'L	.	8c#X'L	.	8ff#'L	.	8dd'L 8aa	.	16%3ee#'L	.
8r	.	8r	.	8r	.	8ff#'	.	8dd' 8aa	.	.	.
.	.	.	.	.	.	.	.	.	.	16%3gg#'J	.
8r'	.	8B'J	.	8b'J	.	8ff#'J	.	8dd'J 8aa	.	.	.
*	*	*	*	*clefG2	*	*	*	*	*	*	*
=13	=13	=13	=13	=13	=13	=13	=13	=13	=13	=13	=13
8G#X	.	(4G#X	.	(4g#X	.	8ff#X'L	.	8dd'L 8aa	.	16%3cc#'L	.
8r	.	.	.	.	.	8ff#'	.	8dd' 8aa	.	.	.
.	.	.	.	.	.	.	.	.	.	16%3ee#'J	.
8r	.	8A	.	8a	.	8ff#'J	.	8dd'J 8aa	.	.	.
*	*	*clefC4	*	*	*	*	*	*	*	*	*
4r	.	8g#XL)	.	8gg#XL)	.	8ff#'L	.	8dd'L 8aa	.	16%3dd#'	.
.	.	8f#X'	.	8ff#X'	.	8ff#'	.	8dd' 8aa	.	.	.
.	.	.	.	.	.	.	.	.	.	16%3r	.
8r	.	8e#X'J	.	8ee#X'J	.	8ff#'J	.	8dd'J 8aa	.	.	.
!!LO:REH:t=1
=14	=14	=14	=14	=14	=14	=14	=14	=14	=14	=14	=14
.	.	(16qqa/LL	.	(16qqaa/LL	.	.	.	.	.	.	.
.	.	16qqb/JJ	.	16qqbb/JJ	.	.	.	.	.	.	.
4%3r	.	[4.a)	.	[4.aa)	.	8ff#X'L	.	8dd'L 8aa	.	16%3cc#'L	.
.	.	.	.	.	.	8ff#'	.	8dd' 8aa	.	.	.
.	.	.	.	.	.	.	.	.	.	16%3dd#'	.
.	.	.	.	.	.	8ff#'J	.	8dd'J 8aa	.	.	.
.	.	8a]	.	8aa]	.	8ff#'L	.	8dd'L 8aa	.	16%3ee#'	.
.	.	8r	.	8r	.	8ff#'	.	8dd' 8aa	.	.	.
.	.	.	.	.	.	.	.	.	.	16%3gg#'J	.
.	.	(16aLL	.	(16aaLL	.	8ff#'J	.	8dd'J 8aa	.	.	.
.	.	16bJJ	.	16bbJJ	.	.	.	.	.	.	.
=	=	=	=	=	=	=	=	=	=	=	=
*-	*-	*-	*-	*-	*-	*-	*-	*-	*-	*-	*-
!!!system-decoration: [(s1,s2,s3,s4,s5,s6)]
!!!EED: Daniel Wright
!!!EEV: 2021/08/23
!!!EED2: Rafael Laurindo
!!!EEV2: 2022/02/18
